packages/foundations/assets/icons/functional/images/buildings/train_station_32.svg

<svg width="32" height="32" viewBox="0 0 32 32" fill="none" xmlns="http://www.w3.org/2000/svg">
<g clip-path="url(#clip0_184_213)">
<path fill-rule="evenodd" clip-rule="evenodd" d="M23 3C23.563 3 24 3.469 24 4V17H29C29.563 17 30 17.438 30 18V28C30 28.563 29.562 29 29 29H19C18.437 29 18 28.562 18 28V23C18 22.437 17.562 22 17 22H15C14.437 22 14 22.438 14 23V28C14 28.563 13.562 29 13 29H3C2.437 29 2 28.562 2 28V18C2 17.437 2.469 17 3 17H7.969V4C7.969 3.499 8.5 3 9 3H23ZM8 19H4V27H8V19ZM22 5H10V27H12V23C12 22.2044 12.3161 21.4413 12.8787 20.8787C13.4413 20.3161 14.2044 20 15 20H17C17.7956 20 18.5587 20.3161 19.1213 20.8787C19.6839 21.4413 20 22.2044 20 23V27H22V5ZM28 19H24V27H28V19ZM16 8C18.219 8 20 9.781 20 12C20.0062 13.0636 19.5905 14.0863 18.844 14.844C18.0863 15.5905 17.0636 16.0062 16 16C13.781 16 12 14.219 12 12C12 9.781 13.781 8 16 8ZM16 10C14.906 10 14 10.906 14 12C14 13.094 14.906 14 16 14C17.094 14 18 13.094 18 12C18 10.906 17.094 10 16 10Z" fill="#1A1C1F"/>
</g>
<defs>
<clipPath id="clip0_184_213">
<rect width="32" height="32" fill="white"/>
</clipPath>
</defs>
</svg>

<svg xmlns="http://www.w3.org/2000/svg" width="32" height="32" fill="none"><g clip-path="url(#a)"><path fill="#1A1C1F" fill-rule="evenodd" d="M23 3c.563 0 1 .469 1 1v13h5c.563 0 1 .438 1 1v10c0 .563-.438 1-1 1H19c-.563 0-1-.438-1-1v-5c0-.563-.438-1-1-1h-2c-.563 0-1 .438-1 1v5c0 .563-.438 1-1 1H3c-.563 0-1-.438-1-1V18c0-.563.469-1 1-1h4.969V4c0-.501.531-1 1.031-1zM8 19H4v8h4zM22 5H10v22h2v-4a3 3 0 0 1 3-3h2a3 3 0 0 1 3 3v4h2zm6 14h-4v8h4zM16 8c2.219 0 4 1.781 4 4a4.02 4.02 0 0 1-1.156 2.844A4.02 4.02 0 0 1 16 16c-2.219 0-4-1.781-4-4s1.781-4 4-4m0 2c-1.094 0-2 .906-2 2s.906 2 2 2 2-.906 2-2-.906-2-2-2" clip-rule="evenodd"/></g><defs><clipPath id="a"><path fill="#fff" d="M0 0h32v32H0z"/></clipPath></defs></svg>
